X:221
T: Cecilia
N: O'Farrell's Pocket Companion v.3 (Sky ed. p.109)
N: "Irish"
M: C
L: 1/8
R: hornpipe
Q: 280
K: G
GB| d>edB d>edB| G2 ga g3e| d>edB degB| B3 A/B/ A3 G/B/|
d>edB d>edB| G2 g2 agfe| defg d<BAB| G6 :|
zd| fgfd fgfd| g2 gb agfe| d>edB degB| B3G A3 G/A/|
BcBG dedB| cBce agfe| db a/g/f/g//e// dBAB| G6 :|
